Sources/FrostedUI/Resources/Icons.xcassets/cubeFilled32.imageset/cube-filled-32.svg

<svg
  width="32"
  height="32"
  viewBox="0 0 32 32"
  fill="none"
  xmlns="http://www.w3.org/2000/svg"
  data-fui-icon="true"
>
  <path
    d="M14.9062 2.82812C15.5625 2.60938 16.3828 2.60938 17.0391 2.82812L27.9766 6.98438C29.1797 7.42188 30 8.57031 30 9.88281V23.1719C30 24.4844 29.1797 25.5781 27.9766 26.0703L17.0391 30.2266C16.3828 30.4453 15.5625 30.4453 14.9062 30.2266L3.96875 26.0703C2.76562 25.5781 2 24.4844 2 23.1719V9.88281C2 8.57031 2.76562 7.42188 3.96875 6.98438L14.9062 2.82812ZM16.1094 5.28906C16.0547 5.28906 15.8906 5.28906 15.8359 5.28906L5.44531 9.22656L16 13.3828L26.5 9.22656L16.1094 5.28906ZM4.89844 23.6094L14.6875 27.3281V15.6797L4.625 11.7422V23.1719C4.625 23.3906 4.73438 23.5547 4.89844 23.6094ZM17.3125 27.3281L27.0469 23.6094C27.2109 23.5547 27.375 23.3906 27.375 23.1719V11.7422L17.3125 15.6797V27.3281Z"
    fill="currentColor"
  />
</svg>

<svg xmlns="http://www.w3.org/2000/svg" width="32" height="32" fill="none" data-fui-icon="true" viewBox="0 0 32 32"><path fill="currentColor" d="M14.906 2.828a3.55 3.55 0 0 1 2.133 0l10.938 4.156A3.08 3.08 0 0 1 30 9.883v13.289c0 1.312-.82 2.406-2.023 2.898l-10.938 4.157a3.55 3.55 0 0 1-2.133 0L3.97 26.07C2.766 25.578 2 24.484 2 23.172V9.882c0-1.312.766-2.46 1.969-2.898zM16.11 5.29h-.273L5.446 9.227 16 13.383l10.5-4.156zM4.9 23.61l9.789 3.72v-11.65L4.624 11.743v11.43c0 .219.11.383.273.437m12.414 3.72 9.734-3.72a.48.48 0 0 0 .328-.437v-11.43L17.313 15.68z"/></svg>
